X:6
T: ES FREIT EIN WILDER WASSERMANN
N: E0001E
O: Europa, Mitteleuropa, Deutschland, Uckermark, Granzow
R: Sage, Maerchen -, Zauber - Lied
M: 2/4
L: 1/16
K: G
D2 | G2G2AGAc | B2BAG4 |
BABcd2e2 | c2dcB2
Bc | d2A2B2GB | AGFED2
EF | G3DB,2D2 | G4z2
Bc | d2A2B2GB | AGFED2
EF | G3DB,2D2 | G4z2

@@@ Tune index: 3656
